public/img/landing/logo.svg

<svg fill="none" height="58" viewBox="0 0 54 58" width="54" xmlns="http://www.w3.org/2000/svg" xmlns:xlink="http://www.w3.org/1999/xlink"><linearGradient id="a" gradientUnits="userSpaceOnUse" x1="52.055" x2=".004976" y1="30.7533" y2="33.2272"><stop offset="0" stop-color="#8137c8"/><stop offset=".471247" stop-color="#571bae"/><stop offset="1" stop-color="#581cb0"/></linearGradient><linearGradient id="b" gradientUnits="userSpaceOnUse" x1="0" x2="52.6602" y1="36.3921" y2="36.3921"><stop offset="0" stop-color="#9937da"/><stop offset=".312325" stop-color="#9139d9"/><stop offset=".655744" stop-color="#9f40df"/><stop offset="1" stop-color="#ae4cc5"/></linearGradient><linearGradient id="c" gradientUnits="userSpaceOnUse" x1="53.2587" x2=".02589" y1="22.1765" y2="18.3998"><stop offset="0" stop-color="#8c41d2"/><stop offset=".315" stop-color="#722cc0"/><stop offset=".615" stop-color="#5a1bb2"/><stop offset=".915" stop-color="#591db9"/></linearGradient><linearGradient id="d" gradientUnits="userSpaceOnUse" x1="26.6293" x2="26.6293" y1="0" y2="30.1372"><stop offset="0" stop-color="#fdb640"/><stop offset=".255" stop-color="#f2ac4d"/><stop offset=".59" stop-color="#d88978"/><stop offset=".76" stop-color="#a951c2"/><stop offset="1" stop-color="#9c3adf"/></linearGradient><linearGradient id="e" gradientUnits="userSpaceOnUse" x1="26.3301" x2="20.8107" y1="7.96081" y2="18.9971"><stop offset="0" stop-color="#8941d2"/><stop offset=".515" stop-color="#6d29ba"/><stop offset=".98" stop-color="#5f1890"/></linearGradient><linearGradient id="f" gradientUnits="userSpaceOnUse" x1="25.7317" x2="30.6755" y1="8.52944" y2="20.091"><stop offset="0" stop-color="#803aca"/><stop offset=".475" stop-color="#591aaf"/><stop offset=".805" stop-color="#5617b0"/><stop offset=".95" stop-color="#641da9"/></linearGradient><path d="m26.3301 44.3529-26.3301-14.7843v12.4388l26.0275 15.9926 26.6327-15.9926v-12.4388z" fill="url(#a)"/><path d="m2.39365 28.4313-2.39365 1.1373 26.3301 14.7843 26.3301-14.7843-2.3936-1.1373-23.9365 13.6471z" fill="url(#b)"/><path d="m26.3301 42.0784 26.9286-14.7843v-12.5098l-26.3302 15.353-26.9285-15.353v12.5098z" fill="url(#c)"/><path clip-rule="evenodd" d="m0 14.7843 26.3301-14.7843 26.9286 14.7843-26.3302 15.3529zm26.3301-6.82352c-4.1889 2.27452-12.6863 6.93722-13.165 7.39212l13.165 7.3922 13.1651-7.9608z" fill="url(#d)" fill-rule="evenodd"/><path d="m26.3301 20.4706v-12.50979l-7.1809 3.98039-5.9841 3.4118 11.3698 6.2549z" fill="url(#e)"/><path d="m28.1254 21.6079-1.7953-1.1373v-12.50979l13.1651 6.82349z" fill="url(#f)"/></svg>

<svg width="54" height="58" viewBox="0 0 54 58" fill="none" xmlns="http://www.w3.org/2000/svg">
<path d="M26.3301 44.3529L0 29.5686V42.0074L26.0275 58L52.6602 42.0074V29.5686L26.3301 44.3529Z" fill="url(#paint0_linear_19_50)"/>
<path d="M2.39365 28.4313L0 29.5686L26.3301 44.3529L52.6602 29.5686L50.2666 28.4313L26.3301 42.0784L2.39365 28.4313Z" fill="url(#paint1_linear_19_50)"/>
<path d="M26.3301 42.0784L53.2587 27.2941V14.7843L26.9285 30.1373L0 14.7843V27.2941L26.3301 42.0784Z" fill="url(#paint2_linear_19_50)"/>
<path fill-rule="evenodd" clip-rule="evenodd" d="M0 14.7843L26.3301 0L53.2587 14.7843L26.9285 30.1372L0 14.7843ZM26.3301 7.96078C22.1412 10.2353 13.6438 14.898 13.1651 15.3529L26.3301 22.7451L39.4952 14.7843L26.3301 7.96078Z" fill="url(#paint3_linear_19_50)"/>
<path d="M26.3301 20.4706V7.96081L19.1492 11.9412L13.1651 15.353L24.5349 21.6079L26.3301 20.4706Z" fill="url(#paint4_linear_19_50)"/>
<path d="M28.1254 21.6079L26.3301 20.4706V7.96081L39.4952 14.7843L28.1254 21.6079Z" fill="url(#paint5_linear_19_50)"/>
<defs>
<linearGradient id="paint0_linear_19_50" x1="52.055" y1="30.7533" x2="0.00497564" y2="33.2272" gradientUnits="userSpaceOnUse">
<stop stop-color="#8137C8"/>
<stop offset="0.471247" stop-color="#571BAE"/>
<stop offset="1" stop-color="#581CB0"/>
</linearGradient>
<linearGradient id="paint1_linear_19_50" x1="0" y1="36.3921" x2="52.6602" y2="36.3921" gradientUnits="userSpaceOnUse">
<stop stop-color="#9937DA"/>
<stop offset="0.312325" stop-color="#9139D9"/>
<stop offset="0.655744" stop-color="#9F40DF"/>
<stop offset="1" stop-color="#AE4CC5"/>
</linearGradient>
<linearGradient id="paint2_linear_19_50" x1="53.2587" y1="22.1765" x2="0.0258902" y2="18.3998" gradientUnits="userSpaceOnUse">
<stop stop-color="#8C41D2"/>
<stop offset="0.315" stop-color="#722CC0"/>
<stop offset="0.615" stop-color="#5A1BB2"/>
<stop offset="0.915" stop-color="#591DB9"/>
</linearGradient>
<linearGradient id="paint3_linear_19_50" x1="26.6293" y1="0" x2="26.6293" y2="30.1372" gradientUnits="userSpaceOnUse">
<stop stop-color="#FDB640"/>
<stop offset="0.255" stop-color="#F2AC4D"/>
<stop offset="0.59" stop-color="#D88978"/>
<stop offset="0.76" stop-color="#A951C2"/>
<stop offset="1" stop-color="#9C3ADF"/>
</linearGradient>
<linearGradient id="paint4_linear_19_50" x1="26.3301" y1="7.96081" x2="20.8107" y2="18.9971" gradientUnits="userSpaceOnUse">
<stop stop-color="#8941D2"/>
<stop offset="0.515" stop-color="#6D29BA"/>
<stop offset="0.98" stop-color="#5F1890"/>
</linearGradient>
<linearGradient id="paint5_linear_19_50" x1="25.7317" y1="8.52944" x2="30.6755" y2="20.091" gradientUnits="userSpaceOnUse">
<stop stop-color="#803ACA"/>
<stop offset="0.475" stop-color="#591AAF"/>
<stop offset="0.805" stop-color="#5617B0"/>
<stop offset="0.95" stop-color="#641DA9"/>
</linearGradient>
</defs>
</svg>
